X: 1
T: Stockholmsl\aaten
C: J\"ons Jonas Hansson
R: g\aangl\aat
Z: John Chambers <jc@trillian.mit.edu>
M: 2/4
L: 1/16
K: A
E2 \
| "A"A3E  A2c2 |    e4   c2A2 |  "D"d3f  a2f2 |    "A"e4 c2e2 \
| "D"a2ba f2ed | "A"e2ae c2Bc | "E7"d2dB EGBG |1,3 A2"A"AE C2 :|2,4 "A"A6 :|
a2 \
|  "D"fafd fafd | f2fa g2f2 | "A"efec A2Ac |    e2fe c2A2 \
| "E7"E3G  B2e2 | g6   f2   |    e2fe d2fd | "A"c6 ||
a2 \
| "D"fafd fafd | f2fa g2f2 | "A"efec A2Ac |    e2fe c2A2 \
| "E7"E3G  B2e2 | g6   f2   |    efec d2BG | "A"A6 |]
